directory-listing/icons/doc.svg

<svg xmlns="http://www.w3.org/2000/svg" width="100" height="100"><path fill="#61D1F2" d="M67.75 0H17.833a5 5 0 0 0-5 5v90a5 5 0 0 0 5 5h65.333a5 5 0 0 0 5-5V20.417L67.75 0z"/><path fill="#FFF" d="M67.75 15.417a5 5 0 0 0 5 5h15.417L67.75 0v15.417z" opacity=".3"/><path fill="#FFF" d="M55.878 29.274h22.546v4.629H55.878v-4.629zM22.575 86.893h22.546v-4.575H22.575v4.575zm0-42.642h55.767v-4.629H22.575v4.629zm.083 10.565h55.767v-4.629H22.658v4.629zm-.083 11.327h55.767v-4.629H22.575v4.629zm.083 10.729h55.767v-4.793H22.658v4.793z"/></svg>

<svg version="1.1" xmlns="http://www.w3.org/2000/svg" xmlns:xlink="http://www.w3.org/1999/xlink" width="100px" height="100px" viewBox="0 0 100 100" xml:space="preserve">
<path fill="#61D1F2" d="M67.75,0H17.833c-2.761,0-5,2.239-5,5v90c0,2.761,2.239,5,5,5h65.333c2.761,0,5-2.239,5-5V20.417L67.75,0z"
	/>
<path opacity="0.3" fill="#FFFFFF" d="M67.75,15.417c0,2.761,2.239,5,5,5h15.417L67.75,0V15.417z"/>
<path fill="#FFFFFF" d="M55.878,29.274h22.546v4.629H55.878V29.274z M22.575,86.893h22.546v-4.575H22.575V86.893z M22.575,44.251
	h55.767v-4.629H22.575C22.575,39.621,22.575,44.251,22.575,44.251z M22.658,54.816h55.767v-4.629H22.658V54.816z M22.575,66.143
	h55.767v-4.629H22.575C22.575,61.514,22.575,66.143,22.575,66.143z M22.658,76.872h55.767v-4.793H22.658V76.872z"/>
</svg>
